X:511
T: Ostereierlied (217), S. 469
N: T0399
O: Luxemburg
S: Singendes Volk, Esch-Alzette, 1937 posth.]
N: Pintsch, hhh Martin Blum (Pfarrer), 1917
R: Ansingelied fr Volks- und Festtage, Kinderlied]
M: 2/4
L: 1/8
K: G
 | BBAB | G2z2 |
AAGA | B2z2 |
BBdc | B2GG | A2GA | B2z2 |
BBdc | B2GG | A2GA | G3
D | G2A2 | B3D | G2A2 | B2z2 |
B2AA | G2z2

@@@ Tune index: 8565
